packages/common/src/icons/template.svg

<svg width="1em" height="1em" viewBox="0 0 24 24" fill="none" xmlns="http://www.w3.org/2000/svg">
<path fill-rule="evenodd" clip-rule="evenodd" d="M19.8997 18.087C20.5693 17.7176 21 17.0157 21 16.251V8.74845C21 7.98374 20.5693 7.28228 19.8997 6.91293C19.0011 6.41728 17.7509 5.70881 16.5006 5.00031L16.5006 5.00028L16.5005 5.00023L16.5005 5.00021C15.1338 4.22577 13.7671 3.4513 12.8596 2.95469C12.3196 2.65923 11.6804 2.65923 11.1404 2.95469C10.2329 3.45126 8.86641 4.22564 7.49991 5.00001C6.24947 5.70861 4.99903 6.4172 4.10034 6.91292C3.43074 7.28228 3 7.9841 3 8.74882V16.2511C3 17.0158 3.43073 17.7176 4.10034 18.087C4.99904 18.5827 6.24947 19.2913 7.49992 19.9999L7.50012 20L7.50017 20.0001C8.86659 20.7744 10.233 21.5487 11.1404 22.0452C11.6804 22.3407 12.3196 22.3407 12.8596 22.0452C13.767 21.5487 15.1334 20.7744 16.4999 20L16.4999 20L16.5 20C17.7504 19.2914 19.0009 18.5827 19.8997 18.087ZM12.3602 11.3011C12.1358 11.425 11.8638 11.4257 11.6388 11.303L6.71183 8.61724C6.18967 8.3326 6.19067 7.58252 6.71358 7.29926L11.7429 4.57499C11.9281 4.47497 12.1556 4.47497 12.3404 4.57499L17.2941 7.25857C17.8154 7.54098 17.8184 8.28808 17.2993 8.57462L12.3602 11.3011ZM11 13.2186C11 12.9518 10.8582 12.705 10.6276 12.5706L5.6276 9.65704C5.12761 9.36569 4.5 9.72636 4.5 10.3051V16.3302C4.5 16.551 4.50284 16.7965 4.7015 16.9065L9.87834 19.86C10.3783 20.1453 11 19.7842 11 19.2086V13.2186ZM13 13.2913C13 13.0268 13.1393 12.7818 13.3667 12.6466L18.3667 9.67379C18.8666 9.37654 19.5 9.73682 19.5 10.3184V16.3097C19.5 16.527 19.4488 16.7278 19.2618 16.8364L14.1287 19.8396C13.6287 20.1321 13 19.7715 13 19.1922V13.2913Z" fill="currentColor"/>
</svg>

<svg width="1em" height="1em" viewBox="0 0 24 24" fill="none" xmlns="http://www.w3.org/2000/svg"><path fill-rule="evenodd" clip-rule="evenodd" d="M19.9 18.087a2.11 2.11 0 001.1-1.836V8.748c0-.764-.43-1.466-1.1-1.835C19 6.417 17.75 5.709 16.5 5c-1.366-.774-2.733-1.549-3.64-2.045a1.778 1.778 0 00-1.72 0C10.233 3.45 8.866 4.225 7.5 5c-1.25.709-2.501 1.417-3.4 1.913A2.11 2.11 0 003 8.749v7.502c0 .765.43 1.467 1.1 1.836C5 18.583 6.25 19.291 7.5 20c1.367.774 2.733 1.549 3.64 2.045.54.296 1.18.296 1.72 0 .907-.496 2.273-1.27 3.64-2.045 1.25-.709 2.5-1.417 3.4-1.913zm-7.54-6.786a.75.75 0 01-.721.002L6.712 8.617A.75.75 0 016.714 7.3l5.029-2.724c.185-.1.413-.1.597 0l4.954 2.684a.75.75 0 01.005 1.316L12.36 11.3zM11 13.22a.75.75 0 00-.372-.648l-5-2.914a.75.75 0 00-1.128.648v6.025c0 .221.003.467.202.577l5.176 2.953A.75.75 0 0011 19.209v-5.99zm2 .072c0-.264.14-.51.367-.644l5-2.973a.75.75 0 011.133.644v5.992c0 .217-.051.418-.238.526l-5.133 3.004A.75.75 0 0113 19.192v-5.9z" fill="currentColor"/></svg>
